build/img/sprites/48.svg

<svg width="133" height="62" viewBox="0 0 133 62" fill="none" xmlns="http://www.w3.org/2000/svg">
<mask id="path-1-outside-1_331_4578" maskUnits="userSpaceOnUse" x="0" y="0" width="133" height="62" fill="black">
<rect fill="white" width="133" height="62"/>
<path d="M1.16 48.28V37.96L26.28 3H42.68L18.28 37.96L10.76 35.72H54.52V48.28H1.16ZM30.76 59V48.28L31.24 35.72V26.2H46.2V59H30.76ZM67.8581 59.72C65.2981 59.72 63.1381 58.8667 61.3781 57.16C59.6181 55.4533 58.7381 53.2933 58.7381 50.68C58.7381 47.96 59.6181 45.8 61.3781 44.2C63.1381 42.5467 65.2981 41.72 67.8581 41.72C70.4181 41.72 72.5781 42.5467 74.3381 44.2C76.0981 45.8 76.9781 47.96 76.9781 50.68C76.9781 53.2933 76.0981 55.4533 74.3381 57.16C72.5781 58.8667 70.4181 59.72 67.8581 59.72ZM106.736 60.12C101.882 60.12 97.6423 59.4 94.0156 57.96C90.389 56.52 87.5356 54.4933 85.4556 51.88C83.429 49.2133 82.4156 46.0933 82.4156 42.52C82.4156 39 83.429 36.0133 85.4556 33.56C87.5356 31.0533 90.389 29.16 94.0156 27.88C97.6956 26.5467 101.936 25.88 106.736 25.88C111.536 25.88 115.749 26.5467 119.376 27.88C123.056 29.16 125.909 31.0533 127.936 33.56C130.016 36.0133 131.056 39 131.056 42.52C131.056 46.0933 130.042 49.2133 128.016 51.88C125.989 54.4933 123.136 56.52 119.456 57.96C115.829 59.4 111.589 60.12 106.736 60.12ZM106.736 49C109.296 49 111.322 48.3867 112.816 47.16C114.362 45.9333 115.136 44.2267 115.136 42.04C115.136 39.9067 114.362 38.2267 112.816 37C111.322 35.72 109.296 35.08 106.736 35.08C104.176 35.08 102.122 35.72 100.576 37C99.0823 38.2267 98.3356 39.9067 98.3356 42.04C98.3356 44.2267 99.0823 45.9333 100.576 47.16C102.122 48.3867 104.176 49 106.736 49ZM106.736 33.72C102.362 33.72 98.4956 33.1067 95.1356 31.88C91.829 30.6533 89.2156 28.8933 87.2956 26.6C85.3756 24.2533 84.4156 21.4533 84.4156 18.2C84.4156 14.84 85.349 11.96 87.2156 9.56C89.1356 7.16 91.7756 5.29333 95.1356 3.96C98.4956 2.57333 102.362 1.88 106.736 1.88C111.162 1.88 115.029 2.57333 118.336 3.96C121.696 5.29333 124.309 7.16 126.176 9.56C128.096 11.96 129.056 14.84 129.056 18.2C129.056 21.4533 128.096 24.2533 126.176 26.6C124.309 28.8933 121.696 30.6533 118.336 31.88C114.976 33.1067 111.109 33.72 106.736 33.72ZM106.736 24.76C108.762 24.76 110.389 24.2533 111.616 23.24C112.842 22.1733 113.456 20.7333 113.456 18.92C113.456 17 112.816 15.5333 111.536 14.52C110.309 13.5067 108.709 13 106.736 13C104.762 13 103.162 13.5067 101.936 14.52C100.709 15.5333 100.096 17 100.096 18.92C100.096 20.7333 100.709 22.1733 101.936 23.24C103.162 24.2533 104.762 24.76 106.736 24.76Z"/>
</mask>
<path d="M1.16 48.28H0.16V49.28H1.16V48.28ZM1.16 37.96L0.347902 37.3765L0.16 37.638V37.96H1.16ZM26.28 3V2H25.7672L25.4679 2.41648L26.28 3ZM42.68 3L43.5 3.57232L44.5974 2H42.68V3ZM18.28 37.96L17.9945 38.9184L18.6867 39.1246L19.1 38.5323L18.28 37.96ZM10.76 35.72V34.72L10.4745 36.6784L10.76 35.72ZM54.52 35.72H55.52V34.72H54.52V35.72ZM54.52 48.28V49.28H55.52V48.28H54.52ZM30.76 59H29.76V60H30.76V59ZM30.76 48.28L29.7607 48.2418L29.76 48.2609V48.28H30.76ZM31.24 35.72L32.2393 35.7582L32.24 35.7391V35.72H31.24ZM31.24 26.2V25.2H30.24V26.2H31.24ZM46.2 26.2H47.2V25.2H46.2V26.2ZM46.2 59V60H47.2V59H46.2ZM2.16 48.28V37.96H0.16V48.28H2.16ZM1.9721 38.5435L27.0921 3.58352L25.4679 2.41648L0.347902 37.3765L1.9721 38.5435ZM26.28 4H42.68V2H26.28V4ZM41.86 2.42767L17.46 37.3877L19.1 38.5323L43.5 3.57232L41.86 2.42767ZM18.5655 37.0016L11.0455 34.7616L10.4745 36.6784L17.9945 38.9184L18.5655 37.0016ZM10.76 36.72H54.52V34.72H10.76V36.72ZM53.52 35.72V48.28H55.52V35.72H53.52ZM54.52 47.28H1.16V49.28H54.52V47.28ZM31.76 59V48.28H29.76V59H31.76ZM31.7593 48.3182L32.2393 35.7582L30.2407 35.6818L29.7607 48.2418L31.7593 48.3182ZM32.24 35.72V26.2H30.24V35.72H32.24ZM31.24 27.2H46.2V25.2H31.24V27.2ZM45.2 26.2V59H47.2V26.2H45.2ZM46.2 58H30.76V60H46.2V58ZM61.3781 57.16L62.0743 56.4421L61.3781 57.16ZM61.3781 44.2L62.0508 44.9399L62.0568 44.9344L62.0628 44.9288L61.3781 44.2ZM74.3381 44.2L73.6535 44.9288L73.6594 44.9344L73.6655 44.9399L74.3381 44.2ZM74.3381 57.16L73.642 56.4421L74.3381 57.16ZM67.8581 58.72C65.5453 58.72 63.6387 57.9592 62.0743 56.4421L60.682 57.8779C62.6375 59.7742 65.051 60.72 67.8581 60.72V58.72ZM62.0743 56.4421C60.5223 54.9372 59.7381 53.0427 59.7381 50.68H57.7381C57.7381 53.544 58.7139 55.9695 60.682 57.8779L62.0743 56.4421ZM59.7381 50.68C59.7381 48.1971 60.5301 46.3223 62.0508 44.9399L60.7055 43.4601C58.7061 45.2776 57.7381 47.7229 57.7381 50.68H59.7381ZM62.0628 44.9288C63.6255 43.4609 65.5357 42.72 67.8581 42.72V40.72C65.0605 40.72 62.6508 41.6324 60.6935 43.4712L62.0628 44.9288ZM67.8581 42.72C70.1805 42.72 72.0908 43.4609 73.6535 44.9288L75.0228 43.4712C73.0655 41.6324 70.6557 40.72 67.8581 40.72V42.72ZM73.6655 44.9399C75.1861 46.3223 75.9781 48.1971 75.9781 50.68H77.9781C77.9781 47.7229 77.0101 45.2776 75.0108 43.4601L73.6655 44.9399ZM75.9781 50.68C75.9781 53.0427 75.1939 54.9372 73.642 56.4421L75.0343 57.8779C77.0023 55.9695 77.9781 53.544 77.9781 50.68H75.9781ZM73.642 56.4421C72.0775 57.9592 70.171 58.72 67.8581 58.72V60.72C70.6653 60.72 73.0787 59.7742 75.0343 57.8779L73.642 56.4421ZM94.0156 57.96L93.6466 58.8894L94.0156 57.96ZM85.4556 51.88L84.6595 52.4851L84.6662 52.494L84.6732 52.5027L85.4556 51.88ZM85.4556 33.56L84.6861 32.9214L84.6847 32.9231L85.4556 33.56ZM94.0156 27.88L94.3485 28.823L94.3563 28.8202L94.0156 27.88ZM119.376 27.88L119.031 28.8186L119.039 28.8216L119.047 28.8245L119.376 27.88ZM127.936 33.56L127.158 34.1887L127.165 34.1978L127.173 34.2067L127.936 33.56ZM128.016 51.88L128.806 52.4929L128.812 52.4851L128.016 51.88ZM119.456 57.96L119.091 57.0287L119.087 57.0306L119.456 57.96ZM112.816 47.16L112.194 46.3765L112.188 46.3818L112.181 46.3873L112.816 47.16ZM112.816 37L112.165 37.7593L112.179 37.7717L112.194 37.7835L112.816 37ZM100.576 37L101.21 37.7727L101.213 37.7704L100.576 37ZM100.576 47.16L99.9409 47.9327L99.9475 47.9382L99.9542 47.9435L100.576 47.16ZM95.1356 31.88L94.7878 32.8176L94.7927 32.8194L95.1356 31.88ZM87.2956 26.6L86.5216 27.2333L86.5289 27.2419L87.2956 26.6ZM87.2156 9.56L86.4347 8.93524L86.4263 8.94606L87.2156 9.56ZM95.1356 3.96L95.5045 4.88958L95.5171 4.88437L95.1356 3.96ZM118.336 3.96L117.949 4.88219L117.958 4.88593L117.967 4.88949L118.336 3.96ZM126.176 9.56L125.386 10.174L125.395 10.1847L126.176 9.56ZM126.176 26.6L125.402 25.9668L125.4 25.9687L126.176 26.6ZM118.336 31.88L117.993 30.9406L118.336 31.88ZM111.616 23.24L112.253 24.011L112.262 24.0029L112.272 23.9946L111.616 23.24ZM111.536 14.52L110.899 15.291L110.907 15.2976L110.915 15.304L111.536 14.52ZM101.936 14.52L101.299 13.749V13.749L101.936 14.52ZM101.936 23.24L101.279 23.9946L101.289 24.0029L101.299 24.011L101.936 23.24ZM106.736 59.12C101.979 59.12 97.8691 58.4141 94.3847 57.0306L93.6466 58.8894C97.4155 60.3859 101.786 61.12 106.736 61.12V59.12ZM94.3847 57.0306C90.8927 55.6441 88.1923 53.7126 86.2381 51.2573L84.6732 52.5027C86.8789 55.2741 89.8853 57.3959 93.6466 58.8894L94.3847 57.0306ZM86.2518 51.2749C84.3665 48.7943 83.4156 45.8904 83.4156 42.52H81.4156C81.4156 46.2963 82.4914 49.6324 84.6595 52.4851L86.2518 51.2749ZM83.4156 42.52C83.4156 39.2061 84.3639 36.4517 86.2266 34.1969L84.6847 32.9231C82.494 35.575 81.4156 38.7939 81.4156 42.52H83.4156ZM86.2252 34.1986C88.1704 31.8543 90.8611 30.0538 94.3484 28.823L93.6828 26.937C89.9168 28.2662 86.9008 30.2523 84.6861 32.9214L86.2252 34.1986ZM94.3563 28.8202C97.9055 27.5342 102.026 26.88 106.736 26.88V24.88C101.845 24.88 97.4857 25.5591 93.675 26.9398L94.3563 28.8202ZM106.736 26.88C111.445 26.88 115.538 27.5344 119.031 28.8186L119.721 26.9414C115.96 25.559 111.626 24.88 106.736 24.88V26.88ZM119.047 28.8245C122.588 30.0561 125.271 31.8549 127.158 34.1887L128.713 32.9313C126.547 30.2518 123.523 28.2639 119.704 26.9355L119.047 28.8245ZM127.173 34.2067C129.085 36.4618 130.056 39.2128 130.056 42.52H132.056C132.056 38.7872 130.946 35.5648 128.698 32.9133L127.173 34.2067ZM130.056 42.52C130.056 45.8904 129.105 48.7943 127.219 51.2749L128.812 52.4851C130.98 49.6324 132.056 46.2963 132.056 42.52H130.056ZM127.225 51.2672C125.329 53.7123 122.636 55.6416 119.091 57.0288L119.82 58.8912C123.635 57.3984 126.649 55.2744 128.806 52.4928L127.225 51.2672ZM119.087 57.0306C115.602 58.4141 111.492 59.12 106.736 59.12V61.12C111.686 61.12 116.056 60.3859 119.825 58.8894L119.087 57.0306ZM106.736 50C109.451 50 111.727 49.3481 113.45 47.9327L112.181 46.3873C110.917 47.4252 109.14 48 106.736 48V50ZM113.437 47.9435C115.251 46.505 116.136 44.4944 116.136 42.04H114.136C114.136 43.9589 113.474 45.3617 112.194 46.3765L113.437 47.9435ZM116.136 42.04C116.136 39.6297 115.244 37.6498 113.437 36.2165L112.194 37.7835C113.48 38.8036 114.136 40.1836 114.136 42.04H116.136ZM113.466 36.2407C111.743 34.7635 109.461 34.08 106.736 34.08V36.08C109.13 36.08 110.902 36.6765 112.165 37.7593L113.466 36.2407ZM106.736 34.08C104.008 34.08 101.709 34.7643 99.9381 36.2296L101.213 37.7704C102.536 36.6757 104.343 36.08 106.736 36.08V34.08ZM99.9409 36.2273C98.1904 37.6652 97.3356 39.6427 97.3356 42.04H99.3356C99.3356 40.1707 99.9742 38.7881 101.21 37.7727L99.9409 36.2273ZM97.3356 42.04C97.3356 44.4816 98.1841 46.4897 99.9409 47.9327L101.21 46.3873C99.9805 45.377 99.3356 43.9717 99.3356 42.04H97.3356ZM99.9542 47.9435C101.724 49.3473 104.018 50 106.736 50V48C104.334 48 102.52 47.4261 101.197 46.3765L99.9542 47.9435ZM106.736 32.72C102.454 32.72 98.7073 32.1194 95.4786 30.9406L94.7927 32.8194C98.284 34.094 102.27 34.72 106.736 34.72V32.72ZM95.4834 30.9424C92.3104 29.7653 89.8523 28.096 88.0624 25.9581L86.5289 27.2419C88.579 29.6907 91.3475 31.5413 94.7878 32.8176L95.4834 30.9424ZM88.0696 25.9668C86.3068 23.8123 85.4156 21.2406 85.4156 18.2H83.4156C83.4156 21.6661 84.4444 24.6944 86.5217 27.2332L88.0696 25.9668ZM85.4156 18.2C85.4156 15.0376 86.2893 12.3798 88.005 10.1739L86.4263 8.94606C84.4086 11.5402 83.4156 14.6424 83.4156 18.2H85.4156ZM87.9965 10.1847C89.7902 7.94253 92.2773 6.1701 95.5045 4.88949L94.7668 3.03051C91.2739 4.41656 88.481 6.37746 86.4348 8.9353L87.9965 10.1847ZM95.5171 4.88437C98.7342 3.55668 102.467 2.88 106.736 2.88V0.879996C102.257 0.879996 98.257 1.58998 94.7541 3.03562L95.5171 4.88437ZM106.736 2.88C111.06 2.88 114.79 3.5574 117.949 4.88219L118.722 3.0378C115.268 1.58926 111.265 0.879996 106.736 0.879996V2.88ZM117.967 4.88949C121.192 6.16953 123.648 7.93928 125.386 10.1739L126.965 8.94606C124.97 6.38071 122.199 4.41714 118.704 3.03051L117.967 4.88949ZM125.395 10.1847C127.159 12.3905 128.056 15.0445 128.056 18.2H130.056C130.056 14.6355 129.032 11.5295 126.956 8.9353L125.395 10.1847ZM128.056 18.2C128.056 21.2406 127.164 23.8123 125.402 25.9668L126.95 27.2332C129.027 24.6944 130.056 21.6661 130.056 18.2H128.056ZM125.4 25.9687C123.669 28.0956 121.219 29.7628 117.993 30.9406L118.679 32.8194C122.172 31.5438 124.949 29.6911 126.951 27.2313L125.4 25.9687ZM117.993 30.9406C114.764 32.1194 111.017 32.72 106.736 32.72V34.72C111.201 34.72 115.187 34.094 118.679 32.8194L117.993 30.9406ZM106.736 25.76C108.93 25.76 110.802 25.209 112.253 24.011L110.979 22.469C109.976 23.2976 108.595 23.76 106.736 23.76V25.76ZM112.272 23.9946C113.744 22.7148 114.456 20.9853 114.456 18.92H112.456C112.456 20.4813 111.941 21.6319 110.959 22.4854L112.272 23.9946ZM114.456 18.92C114.456 16.7547 113.719 14.9735 112.156 13.736L110.915 15.304C111.912 16.0932 112.456 17.2453 112.456 18.92H114.456ZM112.173 13.749C110.727 12.5547 108.884 12 106.736 12V14C108.534 14 109.891 14.4586 110.899 15.291L112.173 13.749ZM106.736 12C104.587 12 102.744 12.5547 101.299 13.749L102.573 15.291C103.58 14.4586 104.937 14 106.736 14V12ZM101.299 13.749C99.7944 14.9918 99.0956 16.7697 99.0956 18.92H101.096C101.096 17.2303 101.624 16.0749 102.573 15.291L101.299 13.749ZM99.0956 18.92C99.0956 20.9853 99.8076 22.7148 101.279 23.9946L102.592 22.4854C101.61 21.6319 101.096 20.4813 101.096 18.92H99.0956ZM101.299 24.011C102.744 25.2053 104.587 25.76 106.736 25.76V23.76C104.937 23.76 103.58 23.3014 102.573 22.469L101.299 24.011Z" fill="#78213A" mask="url(#path-1-outside-1_331_4578)"/>
</svg>

<svg width="133" height="62" viewBox="0 0 133 62" fill="none" xmlns="http://www.w3.org/2000/svg"><mask id="path-1-outside-1_331_4578" maskUnits="userSpaceOnUse" x="0" y="0" width="133" height="62" fill="#000"><path fill="#fff" d="M0 0h133v62H0z"/><path d="M1.16 48.28V37.96L26.28 3h16.4l-24.4 34.96-7.52-2.24h43.76v12.56H1.16zM30.76 59V48.28l.48-12.56V26.2H46.2V59H30.76zm37.098.72c-2.56 0-4.72-.853-6.48-2.56-1.76-1.707-2.64-3.867-2.64-6.48 0-2.72.88-4.88 2.64-6.48 1.76-1.653 3.92-2.48 6.48-2.48 2.56 0 4.72.827 6.48 2.48 1.76 1.6 2.64 3.76 2.64 6.48 0 2.613-.88 4.773-2.64 6.48-1.76 1.707-3.92 2.56-6.48 2.56zm38.878.4c-4.854 0-9.094-.72-12.72-2.16-3.627-1.44-6.48-3.467-8.56-6.08-2.027-2.667-3.04-5.787-3.04-9.36 0-3.52 1.013-6.507 3.04-8.96 2.08-2.507 4.933-4.4 8.56-5.68 3.68-1.333 7.92-2 12.72-2 4.8 0 9.013.667 12.64 2 3.68 1.28 6.533 3.173 8.56 5.68 2.08 2.453 3.12 5.44 3.12 8.96 0 3.573-1.014 6.693-3.04 9.36-2.027 2.613-4.88 4.64-8.56 6.08-3.627 1.44-7.867 2.16-12.72 2.16zm0-11.12c2.56 0 4.586-.613 6.08-1.84 1.546-1.227 2.32-2.933 2.32-5.12 0-2.133-.774-3.813-2.32-5.04-1.494-1.28-3.52-1.92-6.08-1.92s-4.614.64-6.16 1.92c-1.494 1.227-2.24 2.907-2.24 5.04 0 2.187.746 3.893 2.24 5.12 1.546 1.227 3.6 1.84 6.16 1.84zm0-15.28c-4.374 0-8.24-.613-11.6-1.84-3.307-1.227-5.92-2.987-7.84-5.28-1.92-2.347-2.88-5.147-2.88-8.4 0-3.36.933-6.24 2.8-8.64 1.92-2.4 4.56-4.267 7.92-5.6 3.36-1.387 7.226-2.08 11.6-2.08 4.426 0 8.293.693 11.6 2.08 3.36 1.333 5.973 3.2 7.84 5.6 1.92 2.4 2.88 5.28 2.88 8.64 0 3.253-.96 6.053-2.88 8.4-1.867 2.293-4.48 4.053-7.84 5.28-3.36 1.227-7.227 1.84-11.6 1.84zm0-8.96c2.026 0 3.653-.507 4.88-1.52 1.226-1.067 1.84-2.507 1.84-4.32 0-1.92-.64-3.387-1.92-4.4-1.227-1.013-2.827-1.52-4.8-1.52-1.974 0-3.574.507-4.8 1.52-1.227 1.013-1.84 2.48-1.84 4.4 0 1.813.613 3.253 1.84 4.32 1.226 1.013 2.826 1.52 4.8 1.52z"/></mask><path d="M1.16 48.28h-1v1h1v-1zm0-10.32l-.812-.584-.188.262v.322h1zM26.28 3V2h-.513l-.3.416.813.584zm16.4 0l.82.572L44.597 2H42.68v1zm-24.4 34.96l-.286.958.693.207.413-.593-.82-.572zm-7.52-2.24v-1l-.285 1.958.285-.958zm43.76 0h1v-1h-1v1zm0 12.56v1h1v-1h-1zM30.76 59h-1v1h1v-1zm0-10.72l-1-.038v.038h1zm.48-12.56l1 .038v-.038h-1zm0-9.52v-1h-1v1h1zm14.96 0h1v-1h-1v1zm0 32.8v1h1v-1h-1zM2.16 48.28V37.96h-2v10.32h2zm-.188-9.736l25.12-34.96-1.624-1.168-25.12 34.96 1.624 1.168zM26.28 4h16.4V2h-16.4v2zm15.58-1.572l-24.4 34.96 1.64 1.144 24.4-34.96-1.64-1.144zM18.566 37.002l-7.52-2.24-.571 1.916 7.52 2.24.57-1.916zm-7.806-.282h43.76v-2H10.76v2zm42.76-1v12.56h2V35.72h-2zm1 11.56H1.16v2h53.36v-2zM31.76 59V48.28h-2V59h2zm0-10.682l.48-12.56-2-.076-.48 12.56 2 .076zm.48-12.598V26.2h-2v9.52h2zm-1-8.52H46.2v-2H31.24v2zm13.96-1V59h2V26.2h-2zm1 31.8H30.76v2H46.2v-2zm15.178-.84l.696-.718-.696.718zm0-12.96l.673.74.006-.006.006-.005-.685-.729zm12.96 0l-.684.729.005.005.006.006.673-.74zm0 12.96l-.696-.718.696.718zm-6.48 1.56c-2.313 0-4.22-.76-5.784-2.278l-1.392 1.436c1.956 1.896 4.369 2.842 7.176 2.842v-2zm-5.784-2.278c-1.552-1.505-2.336-3.4-2.336-5.762h-2c0 2.864.976 5.29 2.944 7.198l1.392-1.436zm-2.336-5.762c0-2.483.792-4.358 2.313-5.74l-1.346-1.48c-1.999 1.818-2.967 4.263-2.967 7.22h2zm2.325-5.751c1.563-1.468 3.473-2.209 5.795-2.209v-2c-2.797 0-5.207.912-7.165 2.751l1.37 1.458zm5.795-2.209c2.322 0 4.233.74 5.795 2.209l1.37-1.458c-1.957-1.839-4.367-2.751-7.165-2.751v2zm5.807 2.22c1.521 1.382 2.313 3.257 2.313 5.74h2c0-2.957-.968-5.402-2.967-7.22l-1.346 1.48zm2.313 5.74c0 2.363-.784 4.257-2.336 5.762l1.392 1.436c1.968-1.909 2.944-4.334 2.944-7.198h-2zm-2.336 5.762c-1.564 1.517-3.471 2.278-5.784 2.278v2c2.807 0 5.22-.946 7.176-2.842l-1.392-1.436zm20.374 1.518l-.37.93.37-.93zm-8.56-6.08l-.797.605.007.009.007.009.783-.623zm0-18.32l-.77-.639-.001.002.77.637zm8.56-5.68l.332.943.008-.003-.34-.94zm25.36 0l-.345.939.008.003.008.003.329-.945zm8.56 5.68l-.778.629.007.009.008.009.763-.647zm.08 18.32l.79.613.006-.008-.796-.605zm-8.56 6.08l-.365-.931-.004.002.369.929zm-6.64-10.8l-.622-.783-.006.005-.007.005.635.773zm0-10.16l-.651.76.014.012.015.011.622-.783zm-12.24 0l.634.773.003-.003-.637-.77zm0 10.16l-.635.773.007.005.006.005.622-.783zm-5.44-15.28l-.348.938.005.001.343-.939zm-7.84-5.28l-.774.633.007.009.767-.642zm-.08-17.04l-.781-.625-.009.011.79.614zm7.92-5.6l.368.93.013-.006-.381-.924zm23.2 0l-.387.922.009.004.009.003.369-.929zm7.84 5.6l-.79.614.009.01.781-.624zm0 17.04l-.774-.633-.002.002.776.631zm-7.84 5.28l-.343-.94.343.94zm-6.72-8.64l.637.771.009-.008.01-.008-.656-.755zm-.08-8.72l-.637.771.008.007.008.006.621-.784zm-9.6 0l-.637-.771.637.771zm0 8.72l-.657.755.01.008.01.008.637-.771zm4.8 35.88c-4.757 0-8.867-.706-12.351-2.09l-.738 1.86c3.768 1.496 8.139 2.23 13.089 2.23v-2zm-12.351-2.09c-3.492-1.386-6.193-3.317-8.147-5.773l-1.565 1.246c2.206 2.771 5.212 4.893 8.974 6.386l.738-1.858zm-8.133-5.755c-1.885-2.48-2.836-5.385-2.836-8.755h-2c0 3.776 1.075 7.112 3.243 9.965l1.593-1.21zm-2.836-8.755c0-3.314.948-6.068 2.81-8.323l-1.541-1.274c-2.191 2.652-3.27 5.87-3.27 9.597h2zm2.81-8.321c1.944-2.345 4.635-4.145 8.122-5.376l-.665-1.886c-3.766 1.33-6.782 3.315-8.997 5.984l1.54 1.278zm8.13-5.379c3.55-1.286 7.67-1.94 12.38-1.94v-2c-4.891 0-9.25.68-13.061 2.06l.681 1.88zm12.38-1.94c4.709 0 8.802.654 12.295 1.939l.69-1.878c-3.761-1.382-8.095-2.061-12.985-2.061v2zm12.311 1.945c3.541 1.231 6.224 3.03 8.111 5.364l1.555-1.258c-2.166-2.68-5.19-4.667-9.009-5.995l-.657 1.889zm8.126 5.382c1.912 2.255 2.883 5.006 2.883 8.313h2c0-3.733-1.11-6.955-3.358-9.607l-1.525 1.294zm2.883 8.313c0 3.37-.951 6.274-2.837 8.755l1.593 1.21c2.168-2.853 3.244-6.189 3.244-9.965h-2zm-2.831 8.747c-1.896 2.445-4.589 4.375-8.134 5.762l.729 1.862c3.815-1.493 6.829-3.617 8.986-6.398l-1.581-1.226zm-8.138 5.764c-3.485 1.383-7.595 2.089-12.351 2.089v2c4.95 0 9.32-.734 13.089-2.23l-.738-1.86zM106.736 50c2.715 0 4.991-.652 6.714-2.067l-1.269-1.546C110.917 47.425 109.14 48 106.736 48v2zm6.701-2.056c1.814-1.439 2.699-3.45 2.699-5.904h-2c0 1.919-.662 3.322-1.942 4.337l1.243 1.566zm2.699-5.904c0-2.41-.892-4.39-2.699-5.823l-1.243 1.566c1.286 1.02 1.942 2.4 1.942 4.257h2zm-2.67-5.8c-1.723-1.477-4.005-2.16-6.73-2.16v2c2.394 0 4.166.596 5.429 1.68l1.301-1.52zm-6.73-2.16c-2.728 0-5.027.684-6.798 2.15l1.275 1.54c1.323-1.094 3.13-1.69 5.523-1.69v-2zm-6.795 2.147c-1.75 1.438-2.605 3.416-2.605 5.813h2c0-1.87.638-3.252 1.874-4.267l-1.27-1.546zm-2.605 5.813c0 2.442.848 4.45 2.605 5.893l1.269-1.546c-1.23-1.01-1.874-2.415-1.874-4.347h-2zm2.618 5.904c1.77 1.403 4.064 2.056 6.782 2.056v-2c-2.402 0-4.216-.574-5.539-1.623l-1.243 1.566zm6.782-15.224c-4.282 0-8.029-.6-11.257-1.78l-.686 1.88c3.491 1.274 7.477 1.9 11.943 1.9v-2zm-11.253-1.778c-3.173-1.177-5.63-2.846-7.42-4.984l-1.534 1.284c2.05 2.449 4.819 4.3 8.259 5.576l.695-1.876zm-7.413-4.975c-1.763-2.155-2.654-4.726-2.654-7.767h-2c0 3.466 1.028 6.494 3.106 9.033l1.548-1.266zM85.416 18.2c0-3.162.873-5.82 2.589-8.026l-1.579-1.228c-2.017 2.594-3.01 5.696-3.01 9.254h2zm2.58-8.015c1.794-2.242 4.281-4.015 7.508-5.296l-.737-1.858c-3.493 1.386-6.286 3.346-8.332 5.904l1.561 1.25zm7.521-5.3c3.217-1.328 6.95-2.005 11.219-2.005v-2c-4.479 0-8.479.71-11.982 2.156l.763 1.848zm11.219-2.005c4.324 0 8.054.677 11.213 2.002l.773-1.844C115.268 1.589 111.265.88 106.736.88v2zm11.231 2.01c3.225 1.28 5.681 3.05 7.419 5.284l1.579-1.228c-1.995-2.565-4.766-4.529-8.261-5.915l-.737 1.858zm7.428 5.295c1.764 2.205 2.661 4.86 2.661 8.015h2c0-3.564-1.024-6.67-3.1-9.265l-1.561 1.25zm2.661 8.015c0 3.04-.892 5.612-2.654 7.767l1.548 1.266c2.077-2.539 3.106-5.567 3.106-9.033h-2zm-2.656 7.769c-1.731 2.127-4.181 3.794-7.407 4.972l.686 1.878c3.493-1.275 6.27-3.128 8.272-5.588L125.4 25.97zm-7.407 4.972c-3.229 1.178-6.976 1.779-11.257 1.779v2c4.465 0 8.451-.626 11.943-1.9l-.686-1.88zm-11.257-5.181c2.194 0 4.066-.551 5.517-1.749l-1.274-1.542c-1.003.829-2.384 1.291-4.243 1.291v2zm5.536-1.765c1.472-1.28 2.184-3.01 2.184-5.075h-2c0 1.561-.515 2.712-1.497 3.565l1.313 1.51zm2.184-5.075c0-2.165-.737-3.947-2.3-5.184l-1.241 1.568c.997.79 1.541 1.941 1.541 3.616h2zm-2.283-5.171c-1.446-1.194-3.289-1.749-5.437-1.749v2c1.798 0 3.155.459 4.163 1.291l1.274-1.542zM106.736 12c-2.149 0-3.992.555-5.437 1.749l1.274 1.542c1.007-.832 2.364-1.291 4.163-1.291v-2zm-5.437 1.749c-1.505 1.243-2.203 3.02-2.203 5.171h2c0-1.69.528-2.845 1.477-3.629l-1.274-1.542zm-2.203 5.171c0 2.065.712 3.795 2.183 5.075l1.313-1.51c-.982-.853-1.496-2.004-1.496-3.565h-2zm2.203 5.091c1.445 1.194 3.288 1.749 5.437 1.749v-2c-1.799 0-3.156-.459-4.163-1.291l-1.274 1.542z" fill="#78213A" mask="url(#path-1-outside-1_331_4578)"/></svg>
